X:1
T:Charladies' Ball
M:6/8
L:1/8
K:A
 EAA AF| FE DE|A A cA G|AB EAA| AF FE|C E GA [AE]| A GGA| [dc] ec [dc]|\
 B cAB| [ec] fB [cB]| B AFE| E AA [BA]| B cc [dc]| d eE [ed]| c dB A [dc]|\
 ed e [fe]| dc d [ed]| eA [eB]| dc-c| GA BE| ed cA| AAB B [BA]| F BE|\
E [dc] e2 [ec]| c [dcB] [d2c2B2]| [dc]| eA AA| B2 c [ed] [ec]| d dc [cA]|\
 B deE| e dd [cB]| A z2 z3|
